X:1
T:Title
%%score ( 1 2 ) ( 3 4 )
L:1/8
Q:1/4=90
M:4/4
K:Db
V:1 treble nm="Strings 1, Soprano"
V:2 treble 
V:3 bass nm="Strings 1, Bass"
V:4 bass 
V:1
 z4 z2 [FA][FA] | [Fd]2 [Fd][Fd] [Fd]2 [Ac][GB] | [FA]2 [_F=G][_GB] [=FA]2 [FA][FA] | %3
w: 1.~When~ I~|read~ how~ my~ Sav ior~ was~|nailed~ to~ the~ cross,~ For~ the~|
 [Gc]2 [GB][FA] [EG]2 [DF][CE] | [DF]6 [FA]2 | [Fd]2 [Fd][Fd] [Fd]2 [Ac][GB] | %6
w: sins~ of~ the~ world~ to~ a|tone,~ Oh,~|feel~ so~ un worth y~ such~|
 [FA]2 [_F=G][_GB] [=FA]2 [FA][FA] | [Ec]2 [DB][CA] [E=G]2 [Ec][DB] | [CA]6 [DF]2 | %9
w: suf f'ring~ and~ loss,~ For~ I~|know~ in~ my~ heart~ what~ it~|means.~ *|
 [CE]2 [CE][DF] [EG]2 [DF][CE] | [DF]4 [FA]2 [FA]2 | %11
w: ||
 [GB]2 [GB][GB] [=GB]2 [Ac][Gd][Q:1/4=88][Q:1/4=86][Q:1/4=84] | %12
w: |
 A2 z2 z4[Q:1/4=80][Q:1/4=81][Q:1/4=79][Q:1/4=77][Q:1/4=75][Q:1/4=73][Q:1/4=71][Q:1/4=69][Q:1/4=67][Q:1/4=66][Q:1/4=64][Q:1/4=62][Q:1/4=60][Q:1/4=58] | %13
w: |
 [Fd]2 [Fd][Fd] [Fd]2 [FA][F=A] | [GB]6[Q:1/4=80] [=GB][GB][Q:1/4=12] | %15
w: ||
 [Ac]2 [Ac][GB] [FA]2 [GB][Gc] | [Fd]6 z2 |] %17
w: ||
V:2
 x8 | x8 | x8 | x8 | x8 | x8 | x8 | x8 | x8 | x8 | x8 | x8 | c2- [Ec-][Fc-] [Gc]2 [Gc]2 | x8 | x8 | %15
 x8 | x8 |] %17
V:3
 z4 z2 [D,A,][D,A,] | [D,A,]2 [D,A,][D,A,] [D,A,]2 [D,B,][D,C] | %2
 [D,D]2 [D,D][D,D] [D,D]2 [D,A,D][D,A,] | [A,,A,]2 [A,,A,][A,,A,] [A,,A,]2 [A,,A,][A,,A,] | %4
 [D,A,]6 [D,A,]2 | [D,A,]2 [D,A,][D,A,] [D,A,]2 [D,B,][D,C] | [D,D]2 [D,D][D,D] [D,D]2 [D,D][D,D] | %7
 [E,A,]2 [E,A,][E,A,] [E,B,]2 [E,A,][E,=G,] | [A,,A,]6 [D,A,]2 | %9
 [A,,A,]2 [A,,A,][A,,A,] [A,,A,]2 [A,,A,][A,,A,] | A,4 z4 | [G,D]2 [G,D][G,D] [E,E]2 [E,E][E,E] | %12
 [A,E]6 A,2 | [D,A,]2 [D,A,][D,A,] [D,A,]2 [D,D][D,D] | [G,D]2 [G,D][F,=D] [E,E]2 [E,E][E,E] | %15
 [A,E]2 [A,E][A,D] [A,,C]2 [A,,A,][A,,A,] | [D,A,]6 z2 |] %17
V:4
 x8 | x8 | x8 | x8 | x8 | x8 | x8 | x8 | x8 | x8 | D,4- [D,D]2 [D,D]2 | x8 | x8 | x8 | x8 | x8 | %16
 x8 |] %17

